X:31
T:The Grant's Rant 
T:aka - Fevei feve Tunal chie (Cummings Collection 1778)
T:Green Grow the Rushes (usual title for the reel setting)
R:strathspey or reel
% for strathspey interpretation more dotted rhythms would be added
C:traditional
O:18th century Scottish
B:Bremner's Collections, 1757
N:melodic code 1331 2662
Z:Paul Stewart Cranford (P.S.C.), <http://www.cranfordpub.com>
L:1/8
Q:244
M:C|
K:G
A|G/G/G B>A BGGB|A/A/A ed eAAB|c2 ce d/c/B/A/ GB|cABG TA>GE:|
|:A|G/G/G g>e gddg|e/e/e a>g aeef|gage d/c/B/A/ GB|cABG TA>GE:|
